outputs/icons/device/antenna_round.svg

<svg xmlns="http://www.w3.org/2000/svg" width="1200" height="1200" fill="none"><g fill="#000" clip-path="url(#a)"><path d="M246.393 64.489c-19.53-19.513-51.381-19.637-69.049 1.577A549.96 549.96 0 0 0 50 417.99a549.94 549.94 0 0 0 127.331 351.905c17.671 21.225 49.534 21.095 69.062 1.565l2.197-2.195c19.526-19.53 19.271-51.03 2.047-72.615a446.84 446.84 0 0 1-.013-557.366c17.227-21.592 17.476-53.107-2.065-72.631zM951.26 66.954c-19.54 19.523-19.29 51.039-2.065 72.63a446.84 446.84 0 0 1-.015 557.366c-17.22 21.585-17.475 53.09 2.05 72.615l2.195 2.195c19.53 19.53 51.39 19.66 69.065-1.56a549.96 549.96 0 0 0-.015-703.833c-17.67-21.214-49.52-21.091-69.05-1.577z"/><path d="M807.605 210.476c19.525-19.526 51.53-19.707 68.02 2.444a343.71 343.71 0 0 1 0 410.48c-16.49 22.15-48.495 21.97-68.02 2.445l-2.2-2.2c-19.525-19.525-18.99-50.985-3.915-74.12a240.6 240.6 0 0 0 39.025-131.365c0-46.999-13.75-92.581-39.025-131.366-15.075-23.135-15.61-54.592 3.915-74.118zM392.22 210.476c-19.526-19.526-51.532-19.707-68.022 2.444a343.73 343.73 0 0 0 0 410.48c16.49 22.15 48.496 21.97 68.022 2.445l2.2-2.2c19.526-19.525 18.99-50.985 3.913-74.12a240.604 240.604 0 0 1 0-262.731c15.077-23.135 15.613-54.592-3.913-74.118zM516.23 309.079a137.48 137.48 0 0 1 83.68-28.417 137.48 137.48 0 0 1 83.685 28.417 137.5 137.5 0 0 1 49.1 73.484c7.83 29.23 5.8 60.228-5.78 88.188a137.47 137.47 0 0 1-58.26 66.454v541.965c0 27.615-22.385 50-50 50H581.17c-27.615 0-50-22.385-50-50V537.205a137.49 137.49 0 0 1-14.94-228.126"/></g><defs><clipPath id="a"><path fill="#fff" d="M0 0h1200v1200H0z"/></clipPath></defs></svg>

<svg width="1200" height="1200" viewBox="0 0 1200 1200" fill="none" xmlns="http://www.w3.org/2000/svg"><g clip-path="url(#clip0_833_2255)"><path d="M246.393 64.489C226.863 44.976 195.012 44.852 177.344 66.066C95.394 164.468 50 288.889 50 417.99C50 547.085 95.389 671.5 177.331 769.895C195.002 791.12 226.865 790.99 246.393 771.46L248.59 769.265C268.116 749.735 267.861 718.235 250.637 696.65C187.782 617.88 153.078 519.71 153.078 417.958C153.078 316.215 187.778 218.05 250.624 139.284C267.851 117.692 268.1 86.177 248.559 66.653L246.393 64.489Z" fill="black"/><path d="M951.26 66.954C931.72 86.477 931.97 117.993 949.195 139.584C1012.04 218.35 1046.74 316.515 1046.74 418.259C1046.74 520.01 1012.035 618.18 949.18 696.95C931.96 718.535 931.705 750.04 951.23 769.565L953.425 771.76C972.955 791.29 1004.815 791.42 1022.49 770.2C1104.43 671.8 1149.82 547.385 1149.82 418.291C1149.82 289.19 1104.425 164.769 1022.475 66.367C1004.805 45.153 972.955 45.276 953.425 64.79L951.26 66.954Z" fill="black"/><path d="M807.605 210.476C827.13 190.95 859.135 190.769 875.625 212.92C919.52 271.882 943.63 343.779 943.63 418.16C943.63 492.542 919.52 564.44 875.625 623.4C859.135 645.55 827.13 645.37 807.605 625.845L805.405 623.645C785.88 604.12 786.415 572.66 801.49 549.525C826.765 510.74 840.515 465.16 840.515 418.16C840.515 371.161 826.765 325.579 801.49 286.794C786.415 263.659 785.88 232.202 805.405 212.676L807.605 210.476Z" fill="black"/><path d="M392.22 210.476C372.694 190.95 340.688 190.769 324.198 212.92C280.306 271.882 256.196 343.779 256.196 418.16C256.196 492.542 280.306 564.44 324.198 623.4C340.688 645.55 372.694 645.37 392.22 625.845L394.42 623.645C413.946 604.12 413.41 572.66 398.333 549.525C373.058 510.74 359.307 465.16 359.307 418.16C359.307 371.161 373.058 325.579 398.333 286.794C413.41 263.659 413.946 232.202 394.42 212.676L392.22 210.476Z" fill="black"/><path d="M516.23 309.079C540.235 290.655 569.65 280.667 599.91 280.662C630.175 280.667 659.59 290.655 683.595 309.079C707.6 327.503 724.86 353.332 732.695 382.563C740.525 411.793 738.495 442.791 726.915 470.751C715.34 498.71 694.86 522.07 668.655 537.205V1079.17C668.655 1106.785 646.27 1129.17 618.655 1129.17H581.17C553.555 1129.17 531.17 1106.785 531.17 1079.17V537.205C504.965 522.07 484.485 498.71 472.907 470.751C461.329 442.791 459.299 411.793 467.131 382.563C474.964 353.332 492.222 327.503 516.23 309.079Z" fill="black"/></g><defs><clipPath id="clip0_833_2255"><path width="24" fill="white" d="M0 0H1200V1200H0V0z"/></clipPath></defs></svg>
